X: 10
T: Concertina, The
Z: Shawn Cassady
S: https://thesession.org/tunes/18#setting47334
R: reel
M: 4/4
L: 1/8
K: Amaj
|:e2ce fecf|(3efe ce fece|f2ge (3fff ge|f2ge fecf|
e2ce fecf|eAce fecB|cefg ga af|ecBc A4:|
|:ea (3aaa ea (3aaa|ea (3aaa fece|f2ge (3fff ge|fege fecf|
ea (3aaa ea (3aaa|ea (3aaa fecB|cefg ga af|ecBc A4:|

